assets/svg/add_user_purple.svg

<svg fill="none" height="216" viewBox="0 0 217 216" width="217" xmlns="http://www.w3.org/2000/svg"><g fill="#7200a6"><path d="m206.592 63.612c6.028-6.85 9.864-15.8925 9.864-25.4821 0-21.0975-17.263-38.0859547-38.086-38.0859547-9.864 0-18.633 3.5624547-25.482 9.5900047-13.974-6.02755-28.77-9.316232-44.388-9.316232-59.4582 0-107.682251 48.223982-107.682251 107.682282 0 59.458 48.224051 107.682 107.682251 107.682 59.458 0 107.682-48.224 107.682-107.408 0-15.3441-3.288-30.1403-9.316-43.8403 0-.2747-.274-.5485-.274-.8223zm-98.092 141.11c-19.7276 0-38.086-5.754-53.43-15.893 0-.547.2738-1.096.2738-1.369 0-29.319 23.838-53.157 53.1562-53.157 29.318 0 53.156 23.838 53.156 53.157 0 .547 0 1.096.274 1.369-15.344 10.138-33.702 15.893-53.43 15.893zm-24.112-108.2301c0-13.4262 10.96-24.1119 24.112-24.1119s24.112 10.6862 24.112 24.1119c0 12.3301-9.042 22.4671-21.098 23.8381-1.096 0-1.917.274-3.013.274-1.097 0-1.918 0-3.014-.274-12.0572-1.37-21.0995-11.783-21.0995-23.8381zm90.42 81.9261c-3.288-24.386-19.728-44.662-41.922-53.43 8.22-6.85 13.426-17.263 13.426-28.4961 0-20.8237-16.988-37.812-37.812-37.812-20.8233 0-37.8118 16.7138-37.8118 37.5381 0 11.508 5.2062 21.92 13.4262 28.77-22.1937 8.768-38.634 29.044-41.922 53.43-18.6324-17.535-30.414-42.744-30.414-70.418 0-53.4301 43.292-96.7221 96.7216-96.7221 12.878 0 25.482 2.74 36.99 7.3976-3.287 5.7538-5.206 12.33-5.206 19.4538 0 21.0975 17.263 38.086 38.086 38.086 7.124 0 13.7-1.9177 19.454-5.48 4.932 11.7824 7.398 24.112 7.398 37.2637 0 27.674-11.782 52.885-30.414 70.418zm3.562-112.8881c-15.07 0-27.126-12.0562-27.126-27.1259 0-15.0698 12.33-27.1261 27.126-27.1261s27.126 12.0563 27.126 27.1261c0 15.0697-12.056 27.1259-27.126 27.1259z"/><path d="m195.084 38.1298c0 3.0138-2.466 5.48-5.48 5.48h-6.028v6.0275c0 3.0138-2.466 5.48-5.48 5.48-3.013 0-5.48-2.4662-5.48-5.48v-6.0275h-5.753c-3.014 0-5.48-2.4662-5.48-5.48s2.466-5.48 5.48-5.48h5.753v-5.7538c0-3.0138 2.467-5.48 5.48-5.48 3.014 0 5.48 2.4662 5.48 5.48v5.7538h6.028c3.014 0 5.48 2.4662 5.48 5.48z"/></g></svg>

<svg width="217" height="216" viewBox="0 0 217 216" fill="none" xmlns="http://www.w3.org/2000/svg">
<path d="M206.592 63.612C212.62 56.762 216.456 47.7195 216.456 38.1299C216.456 17.0324 199.193 0.0439453 178.37 0.0439453C168.506 0.0439453 159.737 3.6064 152.888 9.63395C138.914 3.6064 124.118 0.317718 108.5 0.317718C49.0418 0.317718 0.817749 48.5417 0.817749 108C0.817749 167.458 49.0418 215.682 108.5 215.682C167.958 215.682 216.182 167.458 216.182 108.274C216.182 92.9299 212.894 78.1337 206.866 64.4337C206.866 64.159 206.592 63.8852 206.592 63.6114L206.592 63.612ZM108.5 204.722C88.7724 204.722 70.414 198.968 55.07 188.829C55.07 188.282 55.3438 187.733 55.3438 187.46C55.3438 158.141 79.1818 134.303 108.5 134.303C137.818 134.303 161.656 158.141 161.656 187.46C161.656 188.007 161.656 188.556 161.93 188.829C146.586 198.967 128.228 204.722 108.5 204.722H108.5ZM84.388 96.4919C84.388 83.0657 95.348 72.38 108.5 72.38C121.652 72.38 132.612 83.0662 132.612 96.4919C132.612 108.822 123.57 118.959 111.514 120.33C110.418 120.33 109.597 120.604 108.501 120.604C107.404 120.604 106.583 120.604 105.487 120.33C93.4298 118.96 84.3875 108.547 84.3875 96.4919H84.388ZM174.808 178.418C171.52 154.032 155.08 133.756 132.886 124.988C141.106 118.138 146.312 107.725 146.312 96.4919C146.312 75.6682 129.324 58.6799 108.5 58.6799C87.6767 58.6799 70.6882 75.3937 70.6882 96.218C70.6882 107.726 75.8944 118.138 84.1144 124.988C61.9207 133.756 45.4804 154.032 42.1924 178.418C23.56 160.883 11.7784 135.674 11.7784 108C11.7784 54.5699 55.0704 11.2779 108.5 11.2779C121.378 11.2779 133.982 14.0179 145.49 18.6755C142.203 24.4293 140.284 31.0055 140.284 38.1293C140.284 59.2268 157.547 76.2153 178.37 76.2153C185.494 76.2153 192.07 74.2976 197.824 70.7353C202.756 82.5177 205.222 94.8473 205.222 107.999C205.222 135.673 193.44 160.884 174.808 178.417L174.808 178.418ZM178.37 65.5299C163.3 65.5299 151.244 53.4737 151.244 38.404C151.244 23.3342 163.574 11.2779 178.37 11.2779C193.166 11.2779 205.496 23.3342 205.496 38.404C205.496 53.4737 193.44 65.5299 178.37 65.5299Z" fill="#7200A6"/>
<path d="M195.084 38.1298C195.084 41.1436 192.618 43.6098 189.604 43.6098H183.576V49.6373C183.576 52.6511 181.11 55.1173 178.096 55.1173C175.083 55.1173 172.616 52.6511 172.616 49.6373V43.6098H166.863C163.849 43.6098 161.383 41.1436 161.383 38.1298C161.383 35.116 163.849 32.6498 166.863 32.6498H172.616V26.896C172.616 23.8822 175.083 21.416 178.096 21.416C181.11 21.416 183.576 23.8822 183.576 26.896V32.6498H189.604C192.618 32.6498 195.084 35.116 195.084 38.1298Z" fill="#7200A6"/>
</svg>
